img/save.svg

<?xml version="1.0" encoding="UTF-8" standalone="no"?>
<!-- Generator: Adobe Illustrator 9.0, SVG Export Plug-In  -->
<svg id="svg2" xmlns:rdf="http://www.w3.org/1999/02/22-rdf-syntax-ns#" xmlns="http://www.w3.org/2000/svg" xml:space="preserve" height="48" width="48" version="1.0" xmlns:cc="http://creativecommons.org/ns#" xmlns:dc="http://purl.org/dc/elements/1.1/" viewBox="0 0 48 48"><metadata id="metadata25"><rdf:RDF><cc:Work rdf:about=""><dc:format>image/svg+xml</dc:format><dc:type rdf:resource="http://purl.org/dc/dcmitype/StillImage"/></cc:Work></rdf:RDF></metadata>
	<path id="path9" stroke-linejoin="round" d="m40 39h-28l-4-4v-27h32v31z" stroke="#0d3542" stroke-linecap="round" stroke-width="6" fill="#0d3542"/><path id="path11" d="m39.8 38.7h-27.8l-3.8-3.8v-26.1h31.6v29.9z" fill="#0d3542"/><path id="path13" d="m33 37c0 1.1-0.9 2-2 2h-17c-1.1 0-2-0.9-2-2v-9c0-1.1 0.9-2 2-2h17c1.1 0 2 0.9 2 2v9z" fill="#96c1cf"/><path id="path15" d="m21 37h-6v-9h6v9z" fill="#0d3542"/><path id="path17" d="m38 22h-28v-13h28v13z" fill="#96c1cf"/>
	<g id="crop_x0020_marks" stroke="#000">
		<path id="path20" fill="none" d="m48 48h-48v-48h48v48z"/>
	</g>
</svg>

<?xml version="1.0" encoding="UTF-8" standalone="no"?>
<!-- Generator: Adobe Illustrator 9.0, SVG Export Plug-In  -->

<svg
   xmlns:dc="http://purl.org/dc/elements/1.1/"
   xmlns:cc="http://creativecommons.org/ns#"
   xmlns:rdf="http://www.w3.org/1999/02/22-rdf-syntax-ns#"
   xmlns:svg="http://www.w3.org/2000/svg"
   xmlns="http://www.w3.org/2000/svg"
   xmlns:sodipodi="http://sodipodi.sourceforge.net/DTD/sodipodi-0.dtd"
   xmlns:inkscape="http://www.inkscape.org/namespaces/inkscape"
   width="48"
   height="48"
   viewBox="0 0 48 48"
   xml:space="preserve"
   id="svg2"
   sodipodi:version="0.32"
   inkscape:version="0.48.3.1 r9886"
   sodipodi:docname="save.svg"
   version="1.0"><metadata
   id="metadata25"><rdf:RDF><cc:Work
       rdf:about=""><dc:format>image/svg+xml</dc:format><dc:type
         rdf:resource="http://purl.org/dc/dcmitype/StillImage" /></cc:Work></rdf:RDF></metadata><defs
   id="defs23">
		
	
			
			
			
			
			
			
		</defs><sodipodi:namedview
   inkscape:window-height="965"
   inkscape:window-width="1272"
   inkscape:pageshadow="2"
   inkscape:pageopacity="0.0"
   borderopacity="1.0"
   bordercolor="#666666"
   pagecolor="#ffffff"
   id="base"
   showgrid="true"
   inkscape:grid-bbox="true"
   inkscape:grid-points="true"
   inkscape:zoom="8.2083335"
   inkscape:cx="7.2964688"
   inkscape:cy="14.054282"
   inkscape:window-x="0"
   inkscape:window-y="0"
   inkscape:current-layer="svg2"
   inkscape:window-maximized="1" />
	<path
   style="fill:#0d3542;stroke:#0d3542;stroke-width:6;stroke-linecap:round;stroke-linejoin:round;stroke-miterlimit:4;stroke-dasharray:none;fill-opacity:1;stroke-opacity:1"
   d="M 40,39 12,39 8,35 8,8 40,8 40,39 z"
   id="path9"
   sodipodi:nodetypes="cccccc"
   inkscape:connector-curvature="0" /><path
   style="fill-rule:nonzero;stroke:none;stroke-miterlimit:4;fill:#0d3542;fill-opacity:1"
   d="M 39.8,38.7 L 12,38.7 L 8.2,34.9 L 8.2,8.8 L 39.8,8.8 L 39.8,38.7 z "
   id="path11" /><path
   style="fill:#96c1cf;fill-rule:nonzero;stroke:none;stroke-width:1.67390001000000010;stroke-miterlimit:4;fill-opacity:1"
   d="M 33,37 C 33,38.1 32.1,39 31,39 L 14,39 C 12.9,39 12,38.1 12,37 L 12,28 C 12,26.9 12.9,26 14,26 L 31,26 C 32.1,26 33,26.9 33,28 L 33,37 z "
   id="path13"
   sodipodi:nodetypes="ccccccccc" /><path
   style="fill-rule:nonzero;stroke:none;stroke-miterlimit:4;fill:#0d3542;fill-opacity:1"
   d="M 21,37 L 15,37 L 15,28 L 21,28 L 21,37 z "
   id="path15"
   sodipodi:nodetypes="ccccc" /><path
   style="fill:#96c1cf;fill-rule:nonzero;stroke:none;stroke-width:1.67390001000000010;stroke-miterlimit:4;fill-opacity:1"
   d="M 38,22 L 10,22 L 10,9 L 38,9 L 38,22 z "
   id="path17"
   sodipodi:nodetypes="ccccc" />
	<g
   id="crop_x0020_marks"
   style="fill-rule:nonzero;stroke:#000000;stroke-miterlimit:4">
		<path
   style="fill:none;stroke:none"
   d="M 48,48 L 0,48 L 0,0 L 48,0 L 48,48 z "
   id="path20" />
	</g>
</svg>
